**kern	**kern	**dynam
*part1	*part1	*part1
*staff2	*staff1	*
*I"Piano	*	*
*clefF4	*clefG2	*
*k[f#c#g#]	*k[f#c#g#]	*
=1	=1	=1
8c#'	8a'	.
8G#'L	8B'L 8e#X	.
8A'	8c#' 8f#	.
8En'J 8Gn	8A#X'J 8c#	.
=	=	=
8D' 8F#	8B' 8d	.
8r	8r	.
8EE 8D	8E< 8G#<	.
8rBB	8rGG	.
=	=	=
8AAA 8C#	8E< 8A<	.
8rc	8rg	.
4r	4r	.
=	=	=
4A	4e 4cc#	mf
4G#	4e 4b	.
=	=	=
8BL	8eL 8g# 8dd	.
8AJ	8eJ 8a 8cc#	.
8r	8r	.
8A	8e 8a 8cc#	.
=	=	=
4.D 4.A	4.f# 4.a 4.ff#	.
8C# 8A	8e 8a 8ee	.
=	=	=
4.C# 4.A	4.e 4.a 4.ee	.
8r	8ee	.
=	=	=
2r	8cc#'L	.
.	8g#'	.
.	8a'	.
.	8f#'J	.
=	=	=
*-	*-	*-
!!!system-decoration: {(s1,s2)}
!!!RDF**kern: < = below
